fs/edit_prohibited_28_regular.svg

<svg viewBox="0 0 28 28" fill="none" xmlns="http://www.w3.org/2000/svg" height="1em" width="1em">
  <path d="M24.8497 3.14974C23.3141 1.61414 20.8244 1.61415 19.2889 3.14976L4.5025 17.9367C4.06211 18.3771 3.74255 18.9235 3.57462 19.5233L2.02779 25.0477C1.95474 25.3086 2.02809 25.5886 2.21968 25.7802C2.41127 25.9718 2.69131 26.0452 2.95223 25.9721L8.47647 24.4254C9.07632 24.2575 9.62281 23.9379 10.0633 23.4974L12.0654 21.4951C12.0223 21.1696 12 20.8374 12 20.5C12 20.1096 12.0298 19.7262 12.0873 19.3519L9.00259 22.4367C8.74429 22.6951 8.42382 22.8825 8.07205 22.981L3.83174 24.1682L5.01906 19.9277C5.11754 19.576 5.30493 19.2556 5.56318 18.9974L17.7497 6.81036L21.1891 10.2498L18.3516 13.0874C18.726 13.0298 19.1095 13 19.5 13C19.8373 13 20.1694 13.0223 20.4948 13.0654L24.8497 8.71037C26.3852 7.17482 26.3852 4.68527 24.8497 3.14974ZM20.3496 4.2104C21.2993 3.2606 22.8392 3.26059 23.789 4.21039C24.7387 5.16014 24.7387 6.69997 23.789 7.64973L22.2497 9.18907L18.8103 5.74968L20.3496 4.2104ZM19.5 27C23.0899 27 26 24.0899 26 20.5C26 16.9101 23.0899 14 19.5 14C15.9101 14 13 16.9101 13 20.5C13 24.0899 15.9101 27 19.5 27ZM19.5 25.5C18.3899 25.5 17.3642 25.1382 16.5346 24.5261L23.5261 17.5346C24.1382 18.3642 24.5 19.3899 24.5 20.5C24.5 23.2614 22.2614 25.5 19.5 25.5ZM22.4654 16.4739L15.4739 23.4654C14.8618 22.6358 14.5 21.6101 14.5 20.5C14.5 17.7386 16.7386 15.5 19.5 15.5C20.6101 15.5 21.6358 15.8618 22.4654 16.4739Z" fill="#212121"/>
</svg>

<svg viewBox="0 0 28 28" fill="none" xmlns="http://www.w3.org/2000/svg" height="1em" width="1em">
  <path d="M24.85 3.15a3.932 3.932 0 0 0-5.561 0L4.502 17.937c-.44.44-.76.986-.927 1.586l-1.547 5.525a.75.75 0 0 0 .924.924l5.524-1.547a3.626 3.626 0 0 0 1.587-.928l2.002-2.002a7.579 7.579 0 0 1 .022-2.143l-3.084 3.085a2.126 2.126 0 0 1-.93.544l-4.241 1.187 1.187-4.24a2.13 2.13 0 0 1 .544-.93L17.75 6.81l3.44 3.44-2.838 2.837a7.549 7.549 0 0 1 2.143-.022L24.85 8.71a3.932 3.932 0 0 0 0-5.56Zm-4.5 1.06a2.432 2.432 0 1 1 3.439 3.44l-1.54 1.54-3.439-3.44 1.54-1.54ZM19.5 27a6.5 6.5 0 1 0 0-13 6.5 6.5 0 0 0 0 13Zm0-1.5a4.978 4.978 0 0 1-2.965-.974l6.991-6.991A5 5 0 0 1 19.5 25.5Zm2.965-9.026-6.991 6.991a5 5 0 0 1 6.991-6.991Z" fill="#212121"/>
</svg>
